exported-svg/archive.svg

<svg height="24" viewBox="0 0 24 24" width="24" xmlns="http://www.w3.org/2000/svg"><path d="m21 9h-17v12h17zm1 0v12.5c0 .2761424-.2238576.5-.5.5h-18c-.27614237 0-.5-.2238576-.5-.5v-12.5h-1.5c-.27614237 0-.5-.22385763-.5-.5v-5c0-.27614237.22385763-.5.5-.5h22c.2761424 0 .5.22385763.5.5v5c0 .27614237-.2238576.5-.5.5zm-20-5v4h21v-4zm8.5 9c-.2761424 0-.5-.2238576-.5-.5s.2238576-.5.5-.5h4c.2761424 0 .5.2238576.5.5s-.2238576.5-.5.5z"/></svg>

<?xml version="1.0" encoding="UTF-8"?>
<svg width="24px" height="24px" viewBox="0 0 24 24" version="1.1" xmlns="http://www.w3.org/2000/svg" xmlns:xlink="http://www.w3.org/1999/xlink">
    <!-- Generator: Sketch 55.2 (78181) - https://sketchapp.com -->
    <title>archive</title>
    <desc>Created with Sketch.</desc>
    <g id="archive" stroke="none" stroke-width="1" fill="none" fill-rule="evenodd">
        <path d="M21,9 L4,9 L4,21 L21,21 L21,9 Z M22,9 L22,21.5 C22,21.7761424 21.7761424,22 21.5,22 L3.5,22 C3.22385763,22 3,21.7761424 3,21.5 L3,9 L1.5,9 C1.22385763,9 1,8.77614237 1,8.5 L1,3.5 C1,3.22385763 1.22385763,3 1.5,3 L23.5,3 C23.7761424,3 24,3.22385763 24,3.5 L24,8.5 C24,8.77614237 23.7761424,9 23.5,9 L22,9 Z M2,4 L2,8 L23,8 L23,4 L2,4 Z M10.5,13 C10.2238576,13 10,12.7761424 10,12.5 C10,12.2238576 10.2238576,12 10.5,12 L14.5,12 C14.7761424,12 15,12.2238576 15,12.5 C15,12.7761424 14.7761424,13 14.5,13 L10.5,13 Z" id="Combined-Shape" fill="#000000" fill-rule="nonzero"></path>
    </g>
</svg>
